src/assets/img/gaad-a11y-cta.svg

<svg width="218" height="188" viewBox="0 0 218 188" fill="none" xmlns="http://www.w3.org/2000/svg">
<rect width="218" height="188" fill="#F6F6F6"/>
<path d="M77.295 88.0362C74.0139 88.0362 70.9328 87.3118 68.0519 85.863C65.1709 84.4142 62.8101 82.3955 60.9695 79.807L50.346 64.7394C50.0659 64.3531 49.9559 63.9378 50.0159 63.4935C50.0759 63.0492 50.266 62.6725 50.5861 62.3634C51.3863 61.5521 52.3767 61.0884 53.5571 60.9725C54.7375 60.8566 55.8078 61.1271 56.7681 61.7839L63.3703 66.1882V44.8244C63.3703 44.1676 63.6004 43.617 64.0606 43.1727C64.5207 42.7284 65.0909 42.5063 65.7711 42.5063C66.4514 42.5063 67.0215 42.7284 67.4817 43.1727C67.9419 43.617 68.1719 44.1676 68.1719 44.8244V70.6505C68.1719 71.5778 67.7418 72.2635 66.8815 72.7078C66.0212 73.1521 65.1909 73.1038 64.3907 72.563L59.289 69.1438L64.9909 77.1412C66.3913 79.1115 68.1719 80.6473 70.3326 81.7484C72.4934 82.8494 74.8141 83.4 77.295 83.4C81.4163 83.4 84.9275 81.9995 87.8285 79.1985C90.7294 76.3975 92.1799 73.0073 92.1799 69.0279V47.1425C92.1799 46.4857 92.41 45.9351 92.8702 45.4908C93.3303 45.0465 93.9005 44.8244 94.5807 44.8244C95.2609 44.8244 95.8311 45.0465 96.2913 45.4908C96.7514 45.9351 96.9815 46.4857 96.9815 47.1425V69.0279C96.9815 74.3208 95.0709 78.8121 91.2496 82.5017C87.4283 86.1914 82.7768 88.0362 77.295 88.0362ZM75.3743 37.8701C76.0546 37.8701 76.6247 38.0923 77.0849 38.5366C77.545 38.9809 77.7751 39.5314 77.7751 40.1882V60.2192C77.7751 60.876 77.545 61.4265 77.0849 61.8708C76.6247 62.3151 76.0546 62.5372 75.3743 62.5372C74.6941 62.5372 74.1239 62.3151 73.6638 61.8708C73.2036 61.4265 72.9735 60.876 72.9735 60.2192V40.1882C72.9735 39.5314 73.2036 38.9809 73.6638 38.5366C74.1239 38.0923 74.6941 37.8701 75.3743 37.8701ZM84.9775 40.1882C85.6578 40.1882 86.2279 40.4104 86.6881 40.8546C87.1482 41.2989 87.3783 41.8495 87.3783 42.5063V60.2192C87.3783 60.876 87.1482 61.4265 86.6881 61.8708C86.2279 62.3151 85.6578 62.5372 84.9775 62.5372C84.2973 62.5372 83.7271 62.3151 83.267 61.8708C82.8068 61.4265 82.5767 60.876 82.5767 60.2192V42.5063C82.5767 41.8495 82.8068 41.2989 83.267 40.8546C83.7271 40.4104 84.2973 40.1882 84.9775 40.1882Z" fill="#5187DF"/>
<path d="M77.8934 138.228C81.1292 138.228 83.8797 137.139 86.1448 134.962C88.4099 132.785 89.5424 130.141 89.5424 127.031C89.5424 123.921 88.4099 121.277 86.1448 119.1C83.8797 116.922 81.1292 115.834 77.8934 115.834C74.6576 115.834 71.9071 116.922 69.642 119.1C67.3769 121.277 66.2444 123.921 66.2444 127.031C66.2444 130.141 67.3769 132.785 69.642 134.962C71.9071 137.139 74.6576 138.228 77.8934 138.228ZM77.8934 133.749C75.9519 133.749 74.3016 133.096 72.9426 131.79C71.5835 130.483 70.904 128.897 70.904 127.031C70.904 125.165 71.5835 123.578 72.9426 122.272C74.3016 120.966 75.9519 120.313 77.8934 120.313C79.8349 120.313 81.4852 120.966 82.8442 122.272C84.2033 123.578 84.8828 125.165 84.8828 127.031C84.8828 128.897 84.2033 130.483 82.8442 131.79C81.4852 133.096 79.8349 133.749 77.8934 133.749ZM77.8934 145.692C72.112 145.692 66.8376 144.2 62.0701 141.214C57.3027 138.228 53.5383 134.288 50.7771 129.395C50.5613 129.021 50.3995 128.638 50.2917 128.244C50.1838 127.85 50.1299 127.446 50.1299 127.031C50.1299 126.616 50.1838 126.212 50.2917 125.818C50.3995 125.424 50.5613 125.04 50.7771 124.667C53.5383 119.773 57.3027 115.834 62.0701 112.848C66.8376 109.862 72.112 108.369 77.8934 108.369C83.6748 108.369 88.9492 109.862 93.7166 112.848C98.4841 115.834 102.248 119.773 105.01 124.667C105.225 125.04 105.387 125.424 105.495 125.818C105.603 126.212 105.657 126.616 105.657 127.031C105.657 127.446 105.603 127.85 105.495 128.244C105.387 128.638 105.225 129.021 105.01 129.395C102.248 134.288 98.4841 138.228 93.7166 141.214C88.9492 144.2 83.6748 145.692 77.8934 145.692ZM77.8934 140.716C82.7687 140.716 87.245 139.482 91.3221 137.015C95.3993 134.547 98.5165 131.219 100.674 127.031C98.5165 122.842 95.3993 119.514 91.3221 117.047C87.245 114.579 82.7687 113.346 77.8934 113.346C73.0181 113.346 68.5418 114.579 64.4647 117.047C60.3875 119.514 57.2703 122.842 55.1131 127.031C57.2703 131.219 60.3875 134.547 64.4647 137.015C68.5418 139.482 73.0181 140.716 77.8934 140.716Z" fill="#5187DF"/>
<path d="M164.123 120.529C164.123 123.089 163.706 125.517 162.873 127.813C162.04 130.11 160.872 132.213 159.368 134.123C158.921 134.692 158.698 135.311 158.698 135.982C158.698 136.652 158.941 137.231 159.429 137.719C159.957 138.207 160.567 138.42 161.258 138.359C161.949 138.298 162.518 137.983 162.965 137.414C164.834 135.098 166.307 132.497 167.384 129.612C168.461 126.726 169 123.699 169 120.529C169 117.278 168.461 114.209 167.384 111.324C166.307 108.439 164.834 105.838 162.965 103.521C162.518 102.952 161.949 102.638 161.258 102.577C160.567 102.516 159.957 102.729 159.429 103.217C158.941 103.704 158.698 104.283 158.698 104.954C158.698 105.624 158.921 106.244 159.368 106.813C160.872 108.723 162.04 110.836 162.873 113.153C163.706 115.469 164.123 117.928 164.123 120.529ZM142.178 126.625C143.885 126.625 145.327 126.025 146.506 124.826C147.684 123.628 148.274 122.195 148.274 120.529C148.274 118.822 147.684 117.379 146.506 116.201C145.327 115.022 143.885 114.433 142.178 114.433C140.471 114.433 139.028 115.022 137.85 116.201C136.671 117.379 136.082 118.822 136.082 120.529C136.082 122.195 136.671 123.628 137.85 124.826C139.028 126.025 140.471 126.625 142.178 126.625ZM129.986 142.474C129.986 141.783 129.752 141.204 129.285 140.737C128.818 140.269 128.239 140.036 127.548 140.036C126.857 140.036 126.278 140.269 125.81 140.737C125.343 141.204 125.109 141.783 125.109 142.474C125.109 145.156 126.064 147.452 127.974 149.362C129.884 151.272 132.181 152.227 134.863 152.227C137.382 152.227 139.445 151.597 141.05 150.338C142.655 149.078 143.885 147.229 144.738 144.79C145.429 142.758 146.089 141.336 146.719 140.523C147.349 139.71 148.802 138.41 151.078 136.622C153.597 134.59 155.589 132.294 157.052 129.734C158.515 127.173 159.246 124.105 159.246 120.529C159.246 115.693 157.61 111.639 154.339 108.368C151.068 105.096 147.014 103.46 142.178 103.46C137.342 103.46 133.288 105.096 130.017 108.368C126.745 111.639 125.109 115.693 125.109 120.529C125.109 121.22 125.343 121.799 125.81 122.266C126.278 122.734 126.857 122.967 127.548 122.967C128.239 122.967 128.818 122.734 129.285 122.266C129.752 121.799 129.986 121.22 129.986 120.529C129.986 117.075 131.154 114.179 133.491 111.842C135.828 109.506 138.723 108.337 142.178 108.337C145.632 108.337 148.528 109.506 150.864 111.842C153.201 114.179 154.369 117.075 154.369 120.529C154.369 123.292 153.821 125.649 152.724 127.6C151.626 129.551 150.062 131.298 148.03 132.842C145.917 134.387 144.271 135.89 143.092 137.353C141.914 138.816 141.04 140.401 140.471 142.108C139.902 143.896 139.221 145.217 138.429 146.07C137.636 146.924 136.448 147.351 134.863 147.351C133.522 147.351 132.374 146.873 131.419 145.918C130.464 144.963 129.986 143.815 129.986 142.474Z" fill="#5187DF"/>
<path d="M138.409 66.3194L138.652 68.3156C138.692 68.6483 138.824 68.9186 139.047 69.1266C139.27 69.3345 139.544 69.4385 139.868 69.4385H142.545C142.869 69.4385 143.143 69.3345 143.366 69.1266C143.589 68.9186 143.721 68.6483 143.762 68.3156L144.005 66.3194C144.329 66.1946 144.623 66.0491 144.887 65.8827C145.151 65.7164 145.384 65.5292 145.587 65.3213L147.411 66.1322C147.695 66.257 147.979 66.2778 148.263 66.1946C148.547 66.1115 148.77 65.9243 148.932 65.6332L150.271 63.2627C150.433 62.9716 150.483 62.6805 150.423 62.3893C150.362 62.0982 150.21 61.8487 149.966 61.6408L148.385 60.4555C148.466 60.1228 148.506 59.7901 148.506 59.4574C148.506 59.1247 148.466 58.792 148.385 58.4593L149.966 57.274C150.21 57.0661 150.362 56.8166 150.423 56.5255C150.483 56.2344 150.433 55.9432 150.271 55.6521L148.932 53.2816C148.77 52.9905 148.547 52.8034 148.263 52.7202C147.979 52.637 147.695 52.6578 147.411 52.7826L145.587 53.5935C145.384 53.3856 145.151 53.1984 144.887 53.0321C144.623 52.8657 144.329 52.7202 144.005 52.5954L143.762 50.5992C143.721 50.2665 143.589 49.9962 143.366 49.7882C143.143 49.5803 142.869 49.4763 142.545 49.4763H139.868C139.544 49.4763 139.27 49.5803 139.047 49.7882C138.824 49.9962 138.692 50.2665 138.652 50.5992L138.409 52.5954C138.084 52.7202 137.79 52.8657 137.526 53.0321C137.263 53.1984 137.03 53.3856 136.827 53.5935L135.002 52.7826C134.718 52.6578 134.434 52.637 134.15 52.7202C133.866 52.8034 133.643 52.9905 133.481 53.2816L132.143 55.6521C131.981 55.9432 131.93 56.2344 131.991 56.5255C132.052 56.8166 132.204 57.0661 132.447 57.274L134.029 58.4593C133.948 58.792 133.907 59.1247 133.907 59.4574C133.907 59.7901 133.948 60.1228 134.029 60.4555L132.447 61.6408C132.204 61.8487 132.052 62.0982 131.991 62.3893C131.93 62.6805 131.981 62.9716 132.143 63.2627L133.481 65.6332C133.643 65.9243 133.866 66.1115 134.15 66.1946C134.434 66.2778 134.718 66.257 135.002 66.1322L136.827 65.3213C137.03 65.5292 137.263 65.7164 137.526 65.8827C137.79 66.0491 138.084 66.1946 138.409 66.3194ZM141.207 63.2003C140.193 63.2003 139.331 62.8364 138.621 62.1086C137.912 61.3808 137.557 60.4971 137.557 59.4574C137.557 58.4177 137.912 57.534 138.621 56.8062C139.331 56.0784 140.193 55.7145 141.207 55.7145C142.221 55.7145 143.082 56.0784 143.792 56.8062C144.502 57.534 144.857 58.4177 144.857 59.4574C144.857 60.4971 144.502 61.3808 143.792 62.1086C143.082 62.8364 142.221 63.2003 141.207 63.2003ZM126.607 76.1757C124.296 74.0131 122.501 71.4867 121.224 68.5963C119.946 65.706 119.308 62.6597 119.308 59.4574C119.308 53.2192 121.437 47.9168 125.695 43.5501C129.953 39.1834 135.124 37 141.207 37C146.276 37 150.767 38.5284 154.681 41.5851C158.594 44.6418 161.139 48.6238 162.315 53.5311L165.478 66.3194C165.681 67.1096 165.539 67.8269 165.052 68.4716C164.566 69.1162 163.917 69.4385 163.106 69.4385H158.239V76.9243C158.239 78.2967 157.763 79.4715 156.81 80.4488C155.857 81.4262 154.711 81.9148 153.373 81.9148H148.506V84.4101C148.506 85.1171 148.273 85.7097 147.807 86.188C147.341 86.6662 146.763 86.9053 146.073 86.9053C145.384 86.9053 144.806 86.6662 144.34 86.188C143.873 85.7097 143.64 85.1171 143.64 84.4101V79.4195C143.64 78.7125 143.873 78.1199 144.34 77.6417C144.806 77.1634 145.384 76.9243 146.073 76.9243H153.373V66.9432C153.373 66.2362 153.606 65.6436 154.072 65.1653C154.539 64.6871 155.117 64.4479 155.806 64.4479H159.943L157.631 54.7788C156.698 50.9943 154.711 47.9168 151.67 45.5463C148.628 43.1758 145.14 41.9905 141.207 41.9905C136.502 41.9905 132.488 43.6748 129.162 47.0435C125.837 50.4121 124.174 54.5085 124.174 59.3326C124.174 61.8279 124.671 64.1984 125.664 66.4442C126.658 68.6899 128.067 70.6861 129.892 72.4328L131.474 73.93V84.4101C131.474 85.1171 131.241 85.7097 130.774 86.188C130.308 86.6662 129.73 86.9053 129.041 86.9053C128.351 86.9053 127.773 86.6662 127.307 86.188C126.841 85.7097 126.607 85.1171 126.607 84.4101V76.1757Z" fill="#5187DF"/>
</svg>

<svg xmlns="http://www.w3.org/2000/svg" width="218" height="188" fill="none" viewBox="0 0 218 188"><path fill="#f6f6f6" d="M0 0h218v188H0z"/><path fill="#5187df" d="M77.295 88.036q-4.922 0-9.243-2.173t-7.083-6.056L50.347 64.739q-.42-.579-.33-1.246.09-.665.57-1.13 1.2-1.216 2.971-1.39 1.77-.174 3.211.81l6.602 4.405V44.824q0-.984.69-1.651t1.711-.667q1.02 0 1.71.667.69.666.69 1.651V70.65q0 1.391-1.29 2.058t-2.49-.145l-5.102-3.42 5.702 7.998a14.6 14.6 0 0 0 5.342 4.607q3.24 1.652 6.962 1.652 6.181 0 10.534-4.202 4.35-4.2 4.35-10.17V47.142q0-.984.691-1.651.69-.667 1.71-.667t1.711.667q.69.667.69 1.651v21.886q0 7.94-5.731 13.474-5.733 5.535-13.955 5.534m-1.92-50.166q1.02 0 1.71.667.69.666.69 1.651V60.22q0 .985-.69 1.652t-1.71.666-1.711-.666-.69-1.652V40.19q0-.986.69-1.652.69-.667 1.71-.667m9.603 2.318q1.02 0 1.71.667.69.666.69 1.651V60.22q0 .985-.69 1.652t-1.71.666-1.711-.666-.69-1.652V42.506q0-.985.69-1.651.69-.667 1.71-.667M77.893 138.228q4.854 0 8.252-3.266 3.397-3.266 3.397-7.931t-3.397-7.931-8.252-3.266-8.251 3.266-3.398 7.931 3.398 7.931 8.251 3.266m0-4.479q-2.912 0-4.95-1.959-2.04-1.96-2.039-4.759t2.039-4.759q2.038-1.959 4.95-1.959t4.951 1.959q2.04 1.96 2.039 4.759t-2.039 4.759q-2.04 1.959-4.95 1.959m0 11.943q-8.671 0-15.823-4.478-7.151-4.48-11.293-11.819a4.9 4.9 0 0 1-.485-1.151 4.6 4.6 0 0 1-.162-1.213q0-.622.162-1.213a4.9 4.9 0 0 1 .485-1.151q4.142-7.34 11.293-11.819 7.152-4.479 15.823-4.479 8.673 0 15.824 4.479 7.15 4.478 11.293 11.819.323.56.485 1.151.162.59.162 1.213 0 .622-.162 1.213-.162.59-.485 1.151-4.143 7.34-11.293 11.819-7.151 4.478-15.824 4.478m0-4.976q7.314 0 13.43-3.701t9.351-9.984q-3.237-6.283-9.352-9.984-6.115-3.702-13.429-3.701-7.312 0-13.428 3.701t-9.352 9.984q3.236 6.282 9.352 9.984 6.115 3.7 13.428 3.701M164.123 120.529q0 3.84-1.25 7.284a22.6 22.6 0 0 1-3.505 6.31q-.67.853-.67 1.859 0 1.005.731 1.737.792.732 1.829.64t1.707-.945q2.804-3.474 4.419-7.802 1.616-4.328 1.616-9.083 0-4.877-1.616-9.205t-4.419-7.803q-.67-.853-1.707-.944-1.037-.092-1.829.64-.731.73-.731 1.737 0 1.005.67 1.859a22.5 22.5 0 0 1 3.505 6.34q1.25 3.474 1.25 7.376m-21.945 6.096q2.56 0 4.328-1.799 1.768-1.797 1.768-4.297 0-2.56-1.768-4.328t-4.328-1.768-4.328 1.768-1.768 4.328q0 2.5 1.768 4.297 1.767 1.799 4.328 1.799m-12.192 15.849q0-1.036-.701-1.737-.7-.701-1.737-.701-1.036 0-1.738.701-.7.7-.701 1.737 0 4.023 2.865 6.888t6.889 2.865q3.779 0 6.187-1.889t3.688-5.548q1.036-3.048 1.981-4.267t4.359-3.901q3.779-3.048 5.974-6.888 2.194-3.841 2.194-9.205 0-7.254-4.907-12.161-4.907-4.908-12.161-4.908t-12.161 4.908q-4.908 4.907-4.908 12.161 0 1.036.701 1.737.702.701 1.738.701t1.737-.701q.7-.7.701-1.737 0-5.181 3.505-8.687 3.505-3.504 8.687-3.505t8.686 3.505 3.505 8.687q0 4.144-1.645 7.071-1.647 2.926-4.694 5.242-3.17 2.317-4.938 4.511a15.2 15.2 0 0 0-2.621 4.755q-.854 2.682-2.042 3.962-1.189 1.281-3.566 1.281-2.012 0-3.444-1.433-1.433-1.433-1.433-3.444M138.409 66.32l.243 1.996q.06.499.395.81.335.313.821.313h2.677q.486 0 .821-.312t.396-.811l.243-1.997a5 5 0 0 0 .882-.436q.396-.25.7-.562l1.824.811q.426.187.852.063t.669-.562l1.339-2.37q.243-.436.152-.874a1.32 1.32 0 0 0-.457-.748l-1.581-1.185a4.2 4.2 0 0 0 0-1.997l1.581-1.185q.366-.312.457-.748.09-.438-.152-.874l-1.339-2.37q-.243-.437-.669-.562a1.2 1.2 0 0 0-.852.063l-1.824.81a3.8 3.8 0 0 0-.7-.56 5 5 0 0 0-.882-.438l-.243-1.996a1.28 1.28 0 0 0-.396-.81 1.16 1.16 0 0 0-.821-.313h-2.677a1.16 1.16 0 0 0-.821.312 1.28 1.28 0 0 0-.395.811l-.243 1.996q-.487.187-.883.437a3.8 3.8 0 0 0-.699.562l-1.825-.811a1.2 1.2 0 0 0-.852-.063q-.426.124-.669.562l-1.338 2.37q-.243.436-.152.874.092.436.456.748l1.582 1.185a4.2 4.2 0 0 0-.122.998q0 .5.122.999l-1.582 1.185a1.33 1.33 0 0 0-.456.748q-.091.437.152.874l1.338 2.37q.243.437.669.562.426.124.852-.063l1.825-.81q.305.31.699.56.396.25.883.437m2.798-3.12q-1.521 0-2.586-1.091-1.064-1.092-1.064-2.652t1.064-2.65 2.586-1.093q1.52 0 2.585 1.092t1.065 2.651-1.065 2.652q-1.065 1.09-2.585 1.091m-14.6 12.976a23 23 0 0 1-5.383-7.58 22.35 22.35 0 0 1-1.916-9.139q0-9.357 6.387-15.907T141.207 37q7.603 0 13.474 4.585 5.87 4.586 7.634 11.946l3.163 12.788q.305 1.185-.426 2.153-.73.966-1.946.967h-4.867v7.485q0 2.059-1.429 3.525t-3.437 1.466h-4.867v2.495q0 1.06-.699 1.778-.699.717-1.734.717-1.034 0-1.733-.717-.7-.716-.7-1.778v-4.99q0-1.06.7-1.778t1.733-.718h7.3v-9.98q0-1.061.699-1.779.7-.717 1.734-.717h4.137l-2.312-9.67q-1.4-5.676-5.961-9.232-4.563-3.555-10.463-3.556-7.057 0-12.045 5.054-4.988 5.053-4.988 12.289 0 3.742 1.49 7.111t4.228 5.989l1.582 1.497v10.48q0 1.06-.7 1.778-.7.717-1.733.717-1.035 0-1.734-.717-.7-.716-.7-1.778z"/></svg>
